!!!COM:	L van Beethoven
!!!OTL:	String Quartet No15 Op 132
**kern	**dynam
*I"Viola	*
*clefC3	*
*k[]	*
*a:	*
*M2/2	*
=1	=1
!LO:TX:a:B:t=Assai sostenuto	!
1r	.
=2	=2
(2A	pp
2G#)	.
=3	=3
(2c	.
2B	.
=4	=4
2D#	<
2E)	>
=5	=5
(2b	pp
2cc)	.
=6	=6
(2d	.
2c)	.
=7	=7
(2F#	<
2G#)	>
=8	=8
(2A	pp
!LO:TX:t=cresc.	!
4G#)	<
4G# 4B	.
=9||	=9||
*M4/4	*
!LO:TX:a:B:t=Allegro	!
4G# 4B	f
4r	.
2r	.
=10	=10
2r	.
4r	.
4E	p
=11	=11
1r	.
=12	=12
2r	.
4r	.
(4E	p
=13	=13
1F)	.
=14	=14
1E	.
=15	=15
[1E	.
=16	=16
4E	<
(8.BL	.
16G#	[
4B	.
[4A)	>
=17	=17
4A	]
2e	<
4e	>
=18	=18
2r	]
4r	.
!LO:TX:t=cresc.	!
[4B- [4d	.
=19	=19
4B- 4d	f
(8.FL	.
16D)	.
(8.DL	.
16B-)	.
(8.B-L	.
16A)	.
=20	=20
4G#	.
4G	.
4F#	.
4F 4A	.
=21	=21
!LO:TX:a:B:t=Adagio	!
1A	fp
=22	=22
!LO:TX:a:B:t=Allegro	!
4G#	p
4r	.
2r	.
=23	=23
1r	.
=24	=24
2r	.
4r	.
(8.FL	p
16E)	.
=25	=25
(4E	.
8.FL	.
16E)	.
(4E	.
8.dL	.
16B)	.
=26	=26
(4d	.
2c	.
4B	.
=27	=27
2.c)	.
4c#	.
=28	=28
!LO:TX:t=cresc.	!
2.d	<
4B- 4d	.
=29	=29
(8.dL	f
16B-)	.
(8.B-L	.
16F)	.
(8.FL	.
16D)	.
(8.DL	.
16B-)	.
=30	=30
(4D-	f
8.GL	.
16A-	.
4B-	.
8.GL	.
16F)	.
=31	=31
(4F	>
2.E)	.
=32	=32
(4B-	f
8.GL	.
16A-	.
4B-	.
8.GL	.
16F)	.
=33	=33
(4F	.
2E)	>
4e	.
=34	=34
4r	]
4e	p
4r	.
4c	.
=35	=35
4r	.
4c	.
4r	.
4c	.
=36	=36
4r	.
4G	.
4r	.
4cc	.
=37	=37
4r	.
4a	.
4r	.
4f	.
=38	=38
(16dLL	<
16c#	.
16d	.
16B-)	.
8B-L	.
8B-	.
(16B-LL	.
16A	.
16B-	.
16G)	.
8GL	.
8G	.
=39||	=39||
*k[b-]	*
*F:	*
(16GLL	.
16F#	.
16G	.
16E)	.
8EL	.
8E	.
(16ELL	.
16D#	.
16E)	.
16C	.
8CL	[
8B-	f
=40	=40
4d	.
4c#	.
2r	.
=41	=41
2r	.
[2A	p
=42	=42
4..A	.
16e	.
4cc#	.
8cc#	.
16r	.
16a	.
=43	=43
4dd	.
4dd	.
8ddL	.
8dd	.
(16ddLL	.
16cc	.
8dd)	.
=44	=44
!LO:TX:t=cresc.	!
(8GL	<
8C)	.
(8gL	.
8c)	.
(8fL	.
8c)	.
(8aL	.
8A)	.
=45	=45
(8gL	.
8c)	.
(8cL	.
8G)	.
(8cL	.
8F)	.
(8fL	.
8A)	.
=46	=46
(8fL	.
8d)	.
(8fL	.
8c)	.
(8fL	.
8B-)	.
(8B-L	.
8F)	.
=47	=47
(8dL	.
8F)	.
(8dL	.
8G)	.
(8fL	f
8A)	.
(8B-L	>
8E)	.
=48	=48
!LO:TX:t=non legato	!
12r	]
12D	p
12C	.
4A	.
12r	.
12D	.
12C	.
4A	.
=49	=49
12r	.
12D	.
12C	.
4c	.
12r	.
12D	.
12C	.
4c	.
=50	=50
12r	.
12D	.
12C	.
4c	.
12r	.
12D	.
12C	.
4A	.
=51	=51
12r	.
12D	.
12C	.
4G	.
12r	.
12D	.
12C	.
4G	.
=52	=52
12r	.
12F	.
12E	.
4c	.
12r	.
12A	.
12G	.
4e	.
=53	=53
12r	.
12g	.
12f	.
4cc	.
!LO:TX:t=cresc.	!
12r	.
12B-	.
12A	.
4f	.
=54	=54
!LO:TX:t=dim.	!
12r	.
!LO:TX:t=dim.	!
12c	.
12B-	.
4f	.
12r	.
12c	.
12B-	.
4f	.
=55	=55
12r	.
12B-	p
12A	.
4f	.
12r	.
12c	.
12B-	.
4B- 4g	.
=56	=56
4r	.
12r	.
12d	.
12c	.
4G	.
12r	.
12d	.
12c	.
=57	=57
!LO:TX:t=dolce	!
!LO:TX:t=dolce	!
(4a	.
4b-	.
4cc	.
4e)	.
=58	=58
(4c	.
4B-	.
4A	.
4E)	.
=59	=59
8CL	.
(16A	.
16B-	.
8cL	.
16d	.
16e	.
8fL)	.
(16f	.
16g	.
16aLL	.
16g	.
16f	.
16e)	.
=60	=60
(16dLL	.
16A	.
16B-	.
16c	.
16dLL	.
16e	.
16d	.
16c	.
8B-L)	.
16b-	.
16a	.
16gLL	.
16f	.
16e	.
16d	.
=61	=61
16cLL	f
16d	.
16e	.
16f	.
16gLL	.
16f	.
16e	.
16d	.
16cLL	.
16d	.
16e	.
16f	.
16gLL	.
16a	.
16b-	.
16cc	.
=62	=62
16fLL	.
16g	.
16a	.
16b-	.
16ccLL	.
16dd	.
16ee	.
16ff	.
[2f	ff
=63	=63
4f	p
!LO:TX:t=legato	!
(4f	.
4g	.
4b-	.
=64	=64
4cc)	.
(4G	.
4A	.
4G)	.
=65	=65
(4F	.
!LO:TX:t=cresc.	!
4d	<
4e	.
4g)	.
=66	=66
4f	.
4F	.
(16FLL	.
16G	.
16A	.
16B-	.
16ALL	.
16G	.
16F	.
16G)	[
=67	=67
(8.AL	ff
16B-)	.
(8.EL	sf
16G)	.
(8.d-L	sf
16B-)	.
(8.B-L	sf
16c)	.
=68	=68
(2A-	p
2G)	.
=69	=69
(8.aL	sf
16g)	.
(8.b-L	sf
16g)	.
(8.B-L	sf
16G)	.
(8.B-L	sf
16A)	.
=70	=70
(2A-	p
2f)	.
=71	=71
!LO:TX:B:t=Rit.	!
(2A-	.
2G)	.
=72	=72
!LO:TX:t=cresc.	!
!LO:TX:t=cresc.	!
(2A-	.
2C) 2G	.
=73	=73
!LO:TX:a:B:t=A tempo	!
8FL	p
8r	.
8F	.
8r	.
8fL	.
8r	.
8e	f
8r	.
=74	=74
4r	.
4c	p
2r	.
=75	=75
1r	.
=76	=76
1r	.
=77	=77
(1F	.
=78	=78
1F#)	.
=79	=79
(1e-	.
=80	=80
1d)	.
=81	=81
(1F#	.
=82	=82
1G)	.
=83	=83
(4F#	.
8.AL	.
16B-	.
4c	.
4A)	.
=84	=84
(4A-	<
8.FL	.
16G	.
4A-	[
8G	>
8E-)	.
=85	=85
1D 1G	]
=86	=86
2.E- 2.G	<
[4g	.
=87	=87
(4g	>
8.e-L	.
16d	.
4c	.
8.dL	.
16e-)	.
=88	=88
!LO:TX:t=cresc.	!
(4e-	<
8.dL	.
16e-	.
4f	.
8.e-L	.
16d)	.
=89	=89
(4f	.
8.e-L	.
16f	.
4g	.
8.fL	.
16e-)	.
=90	=90
(8dL	.
8c)	.
(8.CL	.
16D	.
4E-	.
8.DL	.
16C)	.
=91	=91
4F	[
4F#	.
4G	.
4G 4g	.
=92||	=92||
*k[]	*
*C:	*
2r	.
8.r	.
(16D	p
8.C	.
16D)	.
=93	=93
(8FL	.
[4.E)	.
8EL	.
(8F	.
8.E	.
16F)	.
=94	=94
(8AL	.
4.G)	.
2r	.
=95	=95
8.r	.
(16c	.
8.BL	.
16c)	.
(8EL	.
4.D)	.
=96	=96
8.r	.
(16e	.
8.dL	.
16e)	.
(8GL	.
4.F)	.
=97	=97
(8.FL	>
16B-)	]
8B-L	p
8A	.
(8.GL	>
16A-)	]
8A-L	p
8G	.
=98	=98
(8.FL	>
16g)	]
8gL	p
8f	.
8eL	pp
8d	.
8c	.
8B	.
=99	=99
!LO:TX:t=cresc.	!
1G	<
=100	=100
1c	.
=101	=101
(8BL	.
8E)	.
(8.EL	.
16F#	.
4G	.
8.F#L	.
16E)	[
=102	=102
4E	.
4E	.
4B	.
4B	.
=103	=103
1D#	ff
=104	=104
1E	.
=105	=105
1e	f
=106	=106
!LO:TX:t=f H	!
1B 1f#	.
=107	=107
[1f#	p
=108	=108
4f#	.
(8.gL	.
16a	.
4b	.
8.aL	.
16g)	.
=109	=109
(4.g	.
8f#	.
8eL	.
8b	.
8a	.
8g)	.
=110	=110
!LO:TX:t=cresc.	!
(4g	.
2f#)	.
8.aL	.
16b)	.
=111||	=111||
*k[f#]	*
*e:	*
4cc	f
(8.cL	.
16B	.
4A	.
8.BL	.
16c)	.
=112	=112
(4c	.
2B	.
4A)	.
=113	=113
4G	.
(8.GL	.
16A	.
4B	.
8.AL	.
16G)	.
=114	=114
(4G	.
2F#	.
4c)	.
=115	=115
(4c	.
2B)	.
4G	p
=116	=116
(4G	.
2F#	.
4F)	pp
=117	=117
(4E	.
2D#	.
4C)	.
=118	=118
!LO:TX:t=cresc.	!
4B	.
4A	.
4G	.
4F#	.
=119	=119
4d#	f
4r	.
2r	.
=120	=120
2r	.
4r	.
4B 4a	p
=121	=121
1r	.
=122	=122
1r	.
=123	=123
1r	.
=124	=124
1r	.
=125	=125
1d#	p
=126	=126
(2.e	.
4f#	.
=127	=127
[2.g)	.
(8g	.
8g#)	.
=128	=128
(2a	.
!LO:TX:t=cresc.	!
2a)	.
=129	=129
(8.fL	f
16c)	.
(8.cL	.
16A)	.
(8.AL	.
16F)	.
(8.FL	.
16E)	.
=130	=130
4D#	.
4c	.
4B	.
4A#	.
=131	=131
!LO:TX:a:B:t=Adagio	!
1B	p
=132	=132
(2.B	<
4F#)	>
=133	=133
!LO:TX:a:B:t=Allegro	!
4E	]
4r	.
2r	.
=134	=134
[1E [1G	p
=135	=135
(4E 4G	.
2.F)	.
=136	=136
1B-	.
=137	=137
2.A	.
(8.FL	.
16G)	.
=138||	=138||
*k[]	*
*C:	*
(4G	.
8.FL	.
16G)	.
(4G	.
4c#)	.
=139	=139
(4c#	.
8.eL	.
16f)	.
4f	.
4r	.
=140	=140
4r	.
(8.c#L	.
16d)	.
4d	.
(8.AL	.
16A-)	.
=141	=141
1A- 1f	f
=142	=142
1G 1f	.
=143	=143
1A- 1f	f
=144	=144
1G 1f	]
=145	=145
4r	]
4B 4d	p
4r	.
4G 4d	.
=146	=146
4r	.
4G	.
4r	.
4G	.
=147	=147
4r	.
4B 4d	.
4r	.
4d	.
=148	=148
4r	.
4e	.
4r	.
4c	.
=149	=149
!LO:TX:t=cresc.	!
(16ccLL	<
16b	.
16cc	.
16a)	.
8a	.
8a	.
8aL	.
8D	.
8d	.
8D	.
=150	=150
(8dL	.
16dd	.
16b)	.
8bL	.
8b	.
8bL	.
8B	.
8ddL	.
8dd	f
=151	=151
4d	.
[2E	fp
8.EJ	.
16eJJ	.
=152	=152
4a	.
4a	.
8aL	.
8a	.
(16aLL	.
16b	.
8a)	.
=153	=153
(4a	.
4g#)	.
4r	.
8.r	.
16e	p
=154	=154
4ee	.
4ee	.
(8ee	.
16dd	.
16cc)	.
(16ccLL	.
16dd	.
8cc)	.
=155	=155
!LO:TX:t=cresc.	!
(8.dL	<
16G)	.
(8.dL	.
16G)	.
(8.GL	.
16C)	.
(8.eL	.
16G)	.
=156	=156
(8.fL	.
16G)	.
(8.fL	.
16G)	.
(8.cL	.
16G)	.
(8.gL	.
16c)	.
=157	=157
(8.fL	.
16c)	.
(8.cL	.
16E)	.
(8.EL	.
16B-)	.
(8.B-L	.
16A)	.
=158	=158
(8.AL	.
16A-)	.
(8.A-L	.
16A)	[
(8.AL	f
16G)	.
(8.GL	>
16B)	]
=159	=159
4C	p
12r	.
12A	.
12G	.
4C	.
12r	.
12a	.
12g	.
=160	=160
4G 4d	.
12r	.
12c	.
12B	.
4G	.
12r	.
12c	.
12B	.
=161	=161
4G	.
12r	.
12G	.
12F	.
4E	.
12r	.
12D	.
12C	.
=162	=162
4D 4B	.
12r	.
12c	.
12B	.
4D 4A	.
12r	.
12d	.
12c	.
=163	=163
4G 4B	.
12r	.
12G	.
12F	.
4E	.
12r	.
12d	.
12c	.
=164	=164
4E	.
12r	.
12d	.
12c	.
!LO:TX:t=piu cresc.	!
4E	.
12r	.
12d	.
12c	.
=165	=165
!LO:TX:t=dim.	!
4F	.
12r	.
12d	.
12c	.
4F 4A	.
12r	.
12d	.
12c	.
=166	=166
4G 4e	p
12r	.
12d	.
12c	.
4G	.
12r	.
12e	.
12d	.
=167	=167
(4.G	.
8E)	.
(8FL	.
8D	.
8f	.
8B)	.
=168	=168
(8cL	.
16d	.
16c	.
8BL	.
16c	.
16d	.
8eL	.
16f	.
16e	.
8dL	.
16e	.
16f)	.
=169	=169
(4g	.
4f	.
4e	.
4d)	.
=170	=170
8CL 8c	<
!LO:TX:t=cresc.	!
(16c	<
16d	.
8eL	.
16f	.
16g	.
8aL)	.
(16a	.
16b	.
[4cc)	.
=171	=171
(16ccLL	.
16c	.
16d	.
16e)	.
[4f	.
(16fLL	.
16d	.
16e	.
16f	.
8gL)	.
8G	.
=172	=172
(4g	p
4f	.
8eL	.
16d	.
16c	.
8BL	.
16c)	.
16d	.
=173	=173
(4G	.
4F	.
4E	.
8F	.
16E)	.
16D	.
=174	=174
!LO:TX:t=cresc.	!
(8CL	<
16E	.
16F	.
8GL	.
16A	.
16B	.
8cL)	.
(16c	.
16d	.
[4e)	.
=175	=175
(8eL	.
16f	.
16g	.
[4a)	.
!LO:TX:t=non legato	!
8aL	.
8A	.
8A	.
8A	.
=176	=176
16dLL	f
!LO:TX:t=non legato	!
16c	.
16B	.
16A	<
16GLL	[
16A	.
16B	.
16c	.
16dLL	.
16c	.
16B	.
16A	.
16GLL	.
16F	.
16E	.
16D	.
=177	=177
16CLL	.
16D	.
16E	.
16F	.
16GLL	.
16A	.
16B	.
16c	.
[2F#	ff
=178	=178
4F#	p
(4F#	.
4G	.
4F	.
=179	=179
4G)	.
(4f#	.
4g	.
4b)	.
=180	=180
(16ddLL	.
16cc	.
16b	.
16cc	.
!LO:TX:t=cresc.	!
16bLL	<
16cc	.
16b	.
16a)	.
(16aLL	.
16g	.
16f#	.
16g)	.
(16gLL	.
16f	.
16e	.
16d)	.
=181	=181
(16fLL	.
16e	.
16d	.
16c)	.
(16cLL	.
16B	.
16A	.
16G)	.
(16cLL	.
16B	.
16A	.
16G	.
16FLL	.
16E	.
16D	.
16d)	[
=182	=182
(8.GL	f
16F)	.
(8.FL	.
16A-)	.
(8.fL	.
16d)	.
(8.fL	.
16e)	.
=183	=183
(2c	p
2D)	.
=184	=184
(8.EL	f
16D)	.
(8.FL	.
16D)	.
(8.A-L	.
16F)	.
(8.FL	.
16E)	.
=185	=185
(2e-	p
2cc)	.
=186	=186
!LO:TX:B:t=Rit.	!
2cc	.
2F 2d	.
=187	=187
!LO:TX:t=cresc.	!
2E-	.
2D 2F	.
=188	=188
!LO:TX:a:B:t=a tempo	!
8EL 8G	p
8r	.
8D	.
8r	.
8EL	.
8r	.
8F	f
8r	.
=189	=189
4r	.
4F	p
2r	.
=190	=190
4r	.
8F	.
8r	.
8EL	.
8r	.
8B-	f
8r	.
=191	=191
4r	.
4G 4B-	p
2r	.
=192	=192
!LO:TX:t=cresc.	!
8b-L	<
8r	.
8a	.
8r	.
8AL	.
8r	.
8B	.
8r	.
=193	=193
(1B	p
=194	=194
1c)	.
=195	=195
(2c	.
4A	.
4B)	.
=196	=196
(4c	.
2B	.
4E)	.
=197	=197
4r	.
(8.FL	.
16G	.
4A	.
8.GL	.
16F)	.
=198	=198
(4F	.
2E)	.
(4g#	.
=199	=199
4a	.
8.ccL	.
16b	.
4a	.
8.bL	.
16cc)	.
=200	=200
(4cc	.
2b)	.
(8.BL	.
16E)	.
=201	=201
(4F	.
8.DL	.
16E	.
4F	.
8.EL	.
16D)	.
=202	=202
!LO:TX:t=cresc.	!
(4F	<
4E	.
4c	.
8.BL	.
16A)	[
=203	=203
4C	f
(8.cL	.
16d	.
4e	.
8.dL	.
16c)	.
=204	=204
(4c	.
2B	.
8.AL	.
16G#)	.
=205	=205
(4G#	.
8.AL	.
16G#)	.
(4G#	.
8.fL	.
16d)	.
=206	=206
(4f	>
2e)	.
4b	]
=207	=207
(2.cc	p
4ee)	.
=208	=208
4r	.
!LO:TX:t=espressivo	!
(8.aL	.
16e)	.
(4g	.
4f)	.
=209	=209
2r	.
4r	.
4E	.
=210	=210
!LO:TX:t=cresc.	!
2F	<
2E	.
=211	=211
2D	.
2D#	.
=212	=212
4F	sf
4E	.
4D	.
4C 4c	.
=213	=213
4B	f
4A	.
4G	.
4F	.
=214	=214
[2E	p
4..E	.
16G#	.
=215	=215
(4.c	.
16B	.
16A)	.
8AL	.
8A	.
(16ALL	.
16B	.
8A)	.
=216	=216
(4A	.
4G#)	.
4r	.
8.r	.
16e	.
=217	=217
(4a	.
4a)	.
8a	.
8a	.
8a	.
8a	.
=218	=218
(8aL	.
8g#)	.
(16aLL	.
16b	.
8a)	.
(8aL	.
8g#)	.
8r	.
8a	.
=219	=219
!LO:TX:t=cresc.	!
(8.aL	<
16g#)	.
8g#L	.
8a	.
(8.aL	.
16g#)	.
8g#L	.
8b-	.
=220	=220
(8.b-L	.
16a)	.
8aL	.
8b-	.
(8.b-L	.
16a)	.
8aL	.
8a	.
=221	=221
(8.aL	.
16g#)	.
(8.gL	.
16f)	.
(8.fL	.
16e-)	.
(8.e-L	.
16d)	.
=222	=222
(8.BL	.
16d)	.
(8.BL	.
16A)	[
(8.cL	f
16a)	.
(8.AL	>
16F#)	]
=223	=223
1r	.
=224	=224
!LO:TX:t=p  dolce	!
4..dd	.
16cc#	.
(4b	.
4b)	.
=225	=225
(4dd	.
8cc#	.
8b	.
4a	.
8b	.
8cc#)	.
=226	=226
(4.b	.
8g#)	.
(4.a	.
8d#)	.
=227	=227
4e	.
4r	.
12r	.
12A	.
12G#	.
12F#L	.
12E	.
12D	.
=228	=228
4C#	<
12r	.
12B	.
12A	.
4C#	[
!LO:TX:t=piu cresc.	!
12r	.
12B	.
12A	.
=229	=229
!LO:TX:t=dim.	!
4D	.
12r	.
12B	.
12A	.
4f#	.
12r	.
12B	.
12A	.
=230	=230
4E 4c#	p
12r	.
12B	.
12A	.
4E	.
12r	.
12c#	.
12B	.
=231	=231
4E	.
12r	.
12B	.
12A	.
4E	.
12r	.
12c	.
12B	.
=232	=232
4F	pp
4r	.
2r	.
=233	=233
1E	.
=234	=234
4r	.
8r	.
(16B	.
16G#	.
16BLL	.
16G#	.
16B	.
16G#	.
16BLL	.
16G#	.
16B	.
16G#)	.
=235	=235
4r	.
8r	.
!LO:TX:t=cresc.	!
(16e	.
16c	.
16eLL	.
16c	.
16e	.
16c	.
16eLL	.
16c	.
16e	.
16c)	.
=236	=236
(16aLL	f
16A	.
16c	.
16A)	.
(16cLL	.
16A	.
16c	.
16A)	.
(16cLL	.
16A	.
16c	.
16A	.
16cLL	.
16A	.
16c	.
16A)	.
=237	=237
(16cLL	.
16A	.
16c	.
16A)	.
(16g#LL	.
16B	.
16g#	.
16B	.
16g#LL	.
16B	.
16g#	.
16B	.
16g#LL	.
16B	.
16g#	.
16B)	.
=238	=238
(16g#LL	.
16B	.
16g#	.
16B	.
16g#LL	.
16B	.
16g#	.
16B)	.
(16g#LL	.
16B	.
16g#	.
16B	.
16g#LL	.
16B	.
16g#	.
16B)	.
=239	=239
(16aLL	sf
16c	.
16a	.
16c	.
16aLL	.
16c	.
16a	.
16c	.
16aLL	.
16c	.
16a	.
16c)	.
(16g#LL	.
16B	.
16g#	.
16d)	.
=240	=240
(16eLL	sf
16c	.
16e	.
16c	.
16eLL	.
16c	.
16e	.
16c	.
16eLL	.
16c	.
16e)	.
16c	.
(16g#LL	.
16B	.
16g#	.
16d)	.
=241	=241
2F 2A	.
16fLL	sf
(16F	.
16f	.
16F	.
16f	.
16F	.
16f	.
16F)	.
=242	=242
2r	sf
16eLL	sf
(16E	.
16e	.
16E	.
16eLL	.
16E	.
16e	.
16E)	.
=243	=243
(16GLL	p
16E	.
16G	.
16E	.
16GLL	.
16E	.
16G	.
16E)	.
!LO:TX:t=cresc.	!
(16ALL	<
16F	.
16A	.
16F	.
16ALL	.
16F	.
16A	.
16F)	.
=244	=244
(16cLL	.
16A	.
16c	.
16A	.
16cLL	.
16A	.
16c	.
16A)	.
(16BLL	.
16G#	.
16B	.
16G#	.
16BLL	.
16G#	.
16B)	.
16G#	.
=245	=245
(16GLL	f
16E	.
16G	.
16E	.
16GLL	.
16E	.
16G	.
16E)	.
!LO:TX:t=piu f	!
(16ALL	.
16F	.
16A	.
16F	.
16ALL	.
16F	.
16A	.
16F)	.
=246	=246
(16cLL	.
16A	.
16c	.
16A)	.
(16aLL	.
16c	.
16a	.
16c)	.
(16aLL	.
16c	.
16a	.
16c)	.
(16g#LL	.
16B	.
16g#	.
16B)	.
=247	=247
4r	.
(8.ccL	ff
16dd	.
4ee	.
8.ddL	.
16cc)	.
=248	=248
(4cc	>
8.bL	.
16cc	.
4dd	.
8.ccL	.
16b)	.
=249	=249
[1a	p
=250	=250
(4a	.
2b	.
[4b-)	.
=251	=251
!LO:TX:t=morendo	!
(4b-	.
2a	.
[4a-)	.
=252	=252
(8a-L	pp
[4.g)	.
!LO:TX:t=sempre pp	!
(8gL	.
[4.f)	.
=253	=253
(8fL	.
[4.e)	.
(8eL	.
4.d)	.
=254	=254
!LO:TX:t=sempre pp	!
(16FLL	.
16E	.
16F	.
16E	.
16FLL	.
16E	.
16F	.
16E	.
16FLL	.
16E	.
16F	.
16E	.
16FLL	.
16E	.
16F	.
16E)	.
=255	=255
(16FLL	.
16E	.
16F	.
16E	.
16FLL	.
16E	.
16F	.
16E	.
16FLL	.
16E	.
16F	.
16E	.
16FLL	.
16E	.
16F	.
16E)	.
=256	=256
(16FLL	.
16E	.
16F	.
16E	.
16FLL	.
16E	.
16F	.
16E	.
16FLL	.
16E	.
16F	.
16E	.
16FLL	.
16E	.
16F	.
16E)	.
=257	=257
!LO:TX:t=cresc.	!
(16g#LL	.
16B	.
16g#	.
16B	.
16g#LL	.
16B	.
16g#	.
16B	.
16g#LL	.
16B	.
16g#	.
16B	.
16g#LL	.
16B	.
16g#	.
16B)	.
=258	=258
4A	f
4G 4A	.
4F# 4A	.
4F 4A	.
=259	=259
4E 4A	.
(2e	sf
8g#)	.
8r	.
=260	=260
4A	.
4G 4A	.
4F# 4A	.
4F 4A	.
=261	=261
4E 4A	.
(2e	sf
4g#)	.
=262	=262
4e 4a	.
4r	.
4g#	.
4r	.
=263	=263
4a	.
4r	.
4g# 4b	.
4r	.
=264	=264
4A	.
4r	.
2r	.
=265!|:	=265!|:
*k[f#c#g#]	*
*A:	*
*M3/4	*
!LO:TX:a:B:t=Allegro ma non tanto	!
(4G#	p
4A	.
4c#)	.
=266	=266
(4c#	.
4d	.
4f#)	.
=267	=267
(4A#	.
4c#	.
4d#)	.
=268	=268
(4d#	.
4e	.
4g#)	.
=269	=269
2.r	.
=270	=270
2.r	.
=271	=271
(2d	p
8c#L	.
8B)	.
=272	=272
(8AL	.
8F#)	.
4G#	.
4r	.
=273	=273
2.r	p
=274	=274
2.r	.
=275	=275
(4c#	pp
4d#	.
4f#)	.
=276	=276
(4F#	.
4G#	.
4B)	.
=277	=277
(2G#	pp
8F#L	.
8E)	.
=278	=278
4E	.
4r	.
4r	.
=279	=279
(4E#	.
4F#	.
4A)	.
=280	=280
(4A#	.
4B	.
4d#)	.
=281	=281
(4d#	.
4e	.
4g#)	.
=282	=282
!LO:TX:t=cresc.	!
(4g#	<
4a	.
4e#)	.
=283	=283
(4c#	.
4f#	.
4d#)	.
=284	=284
(4B	.
4e	.
4B)	.
=285	=285
(8BL	.
8g#)	.
4B	[
4B	f
=286	=286
(8AL	.
8B)	.
4G#	.
4r	.
=287:|!	=287:|!
(8AL	.
8B)	.
4E	.
(4G	p
=288	=288
4F#	.
4G	.
4B)	.
=289	=289
(4B	.
4c	.
4e)	.
=290!|:	=290!|:
(4F#	.
4G	.
4B)	.
=291	=291
(4B	.
4c	.
4G)	.
=292||	=292||
*k[]	*
*C:	*
(4A	.
4B	.
4d)	.
=293	=293
(2g	<
8fL	[
8e)	>
=294	=294
(8fL	]
8c)	.
4d	.
4r	.
=295	=295
(2g	<
8fL	[
8e)	>
=296	=296
!LO:TX:t=cresc.	!
(2d	]
8cL	.
8B-)	.
=297	=297
(2A	f
8GL	.
8F)	.
=298	=298
(8E-L	.
8C)	.
4D	.
4r	.
=299	=299
(2B-	.
8AL	.
8G)	.
=300	=300
(8FL	.
8D)	.
4E	.
(8FL	p
8G)	.
=301	=301
(4G	.
4A	.
4c)	.
=302	=302
!LO:TX:t=cresc.	!
(2d	<
8B-L	.
8A)	.
=303	=303
(2G	.
8FL	.
8E)	.
=304	=304
(4.A	f
8G	.
8F	.
8E)	.
=305	=305
(8DL	.
8C	.
8D	.
8F)	.
(8GL	.
8c)	.
=306	=306
(8F#L	pp
8f#)	.
4g	.
4e	.
=307	=307
4f	.
4d	.
4e	.
=308	=308
4c#	.
4d	.
4B	.
=309	=309
4c	.
4A	.
4B	.
=310	=310
!LO:TX:t=cresc.	!
(4D	<
4d	.
8cL	.
8B)	.
=311	=311
(2E	.
8DL	.
8C)	.
=312	=312
(2F	.
8cL	.
8d)	.
=313	=313
(2G	.
8dL	.
8e)	.
=314	=314
(2d 2dd	.
8gL	.
8f)	.
=315	=315
(2e 2ee	.
8aL	.
8g)	[
=316	=316
2.r	.
=317	=317
(4E	p
4F	.
4A)	.
=318	=318
(4e	.
4d	.
4a)	.
=319	=319
(4b	.
4cc	.
8ddL	.
8ee)	.
=320	=320
(4G 4d	.
4c	.
!LO:TX:t=cresc.	!
8BL	<
8c)	.
=321	=321
4G	.
4G	.
4G#	.
=322	=322
(8BL	.
8e)	.
4e	.
(4e	.
=323	=323
4g#	.
4a)	.
(4C	.
=324	=324
4E	.
4F)	[
(4c	f
=325	=325
4e	.
4f)	.
(4e	p
=326	=326
4E	.
4F)	.
(4A	f
=327	=327
4c#	.
4d)	.
(8AL	p
8G)	.
=328	=328
(8GL	.
8E)	.
4F	.
(8fL	f
8e)	.
=329	=329
(8eL	.
8c#)	.
4d	.
4r	.
=330	=330
4r	.
4r	.
(8cL	f
8B)	.
=331	=331
(8BL	.
8G#)	.
4A	.
4r	.
=332	=332
4r	.
4r	.
!LO:TX:t=dim.	!
(8c#L	.
8B)	.
=333	=333
(8BL	.
8G#)	.
4A	.
(8c#L	pp
8B)	.
=334	=334
2.A	<
=335	=335
(8c#L	.
8A#)	.
4B	.
(8AL	[
8B)	.
=336||	=336||
*k[f#c#g#]	*
*A:	*
(8c#L	p
8B	.
8A	.
8B	.
8AL)	.
8r	.
=337	=337
(8AL	.
8G#	.
8F#	.
8G#	.
8AL)	.
8r	.
=338	=338
2.r	.
=339	=339
(8B	.
8A	.
8G#	.
8A	.
8BL)	.
8r	.
=340	=340
(8c#L	.
8B	.
8A	.
8B	.
8c#L)	.
8r	.
=341	=341
4F#	pp
4r	.
4r	.
=342	=342
4F#	.
4r	.
4r	.
=343	=343
4E	.
4r	.
4r	.
=344	=344
2.r	.
=345	=345
4r	.
(8cc#L	pp
8a#)	.
4b	.
=346	=346
4r	.
(8f#L	.
8d#)	.
4e	.
=347	=347
4r	.
(8BL	.
8G#)	.
4A	.
=348	=348
!LO:TX:t=cresc.	!
(2A	<
8G#L	.
8F#)	.
=349	=349
(8EL	.
8C#)	.
4D	.
4r	.
=350	=350
(8F#L	.
8D#)	.
4E	.
4r	.
=351	=351
(8dL	.
8B)	.
4c#	.
4r	.
=352	=352
(8bL	p
8g#	.
4a	.
4cc#)	.
=353	=353
(2a	<
8g#L	[
8f#)	>
=354	=354
(8cc#L	]
8a#	.
4b	.
4dd)	.
=355	=355
(2b	<
8aL	[
8g#)	>
=356	=356
!LO:TX:t=cresc.	!
(4B#	<
4c#	.
4e)	.
=357	=357
(4e#	.
4f#	.
4c#)	.
=358	=358
(4C#	.
4D	.
4F#)	.
=359	=359
(4A#	.
4B	.
4E)	.
=360	=360
(4G#	.
4A)	[
[4f#	p
=361	=361
2f#	.
!LO:TX:t=cresc.	!
[4e	<
=362	=362
2e	.
(8G#L	.
8A)	.
=363	=363
(8AL	.
8E)	.
4G#	.
(8EL	f
8D)	.
=364	=364
(8dL	.
8E)	.
4E	.
(4A	p
=365	=365
4G#	.
4A	.
4c)	.
=366	=366
(4B	.
4c	.
4E)	.
=367	=367
(4F#	.
4G	.
4c)	.
=368	=368
(4B	.
4c	.
4E)	.
=369:|!	=369:|!
(8DL	.
8E)	.
4C#	.
4r	.
=370	=370
4r	.
4r	.
(8AL	pp
8G#)	.
=371	=371
(8G#L	.
8E#)	.
4F#	.
4r	.
=372	=372
4r	.
4r	.
(8BL	.
8A)	.
=373	=373
(8AL	.
8F#)	.
4G#	.
!LO:TX:t=sempre	!
(8AL	.
8G#)	.
=374	=374
(8G#L	pp
8E)	.
4F#	.
(8F#L	.
8G#)	.
=375	=375
(8G#L	.
8B)	.
4A	.
(8BL	.
8A)	.
=376	=376
(8AL	.
8F#)	.
4G#	.
(8BL	.
8c#)	.
=377	=377
(8c#L	.
8e)	.
4d	.
!LO:TX:t=cresc.	!
(4E	<
=378	=378
4G#	.
4B)	.
(8eL	.
8d)	.
=379	=379
(8c#L	.
8B)	.
(8AL	.
8G#)	[
4G#	.
=380	=380
(2d	p
8c#L	.
8B)	.
=381	=381
(8BL	.
8G#)	.
4A	.
4r	.
=382	=382
(2f#	<
8eL	[
8d)	>
=383	=383
(8dL	]
8B)	.
4c#	.
4r	.
=384	=384
!LO:TX:t=cresc.	!
(2ee	<
8ddL	.
8cc#)	.
=385	=385
2.r	.
=386	=386
(2e	.
8dL	.
8c#)	[
=387	=387
(8BL	f
8G#)	.
4A	.
4r	.
=388	=388
4r	.
(8dL	.
8B)	.
4c#	.
=389	=389
(8G#L	p
8B)	.
4A	.
==	==
4r	.
=390	=390
2.r	.
=391	=391
2.r	.
=392	=392
2.r	.
=393	=393
2.r	.
=394	=394
2.r	.
=395	=395
2.r	.
=396	=396
2.r	.
=397	=397
2.r	.
=398	=398
2.r	.
=399	=399
2.r	.
=400	=400
2.r	.
=401	=401
4r	.
4r	.
(8AL	p
8c#	.
=402	=402
8eL	.
8a	.
8cc#	.
8ee)	.
[4A	.
=403	=403
[2.A	.
=404	=404
[2.A	.
=405	=405
[2.A	.
=406	=406
[2.A	.
=407	=407
[2.A	.
=408	=408
[2.A	.
=409	=409
[2.A	.
=410	=410
[2.A	.
=411	=411
2A	.
(8cc#L	pp
8b#	.
=412	=412
8cc#L	.
8b	.
8a	.
8g#)	.
4r	.
=413	=413
4r	.
4r	.
(8bL	.
8a#	.
=414	=414
8bL	.
8a	.
8g#	.
8f#)	.
4r	.
=415	=415
2.r	.
=416	=416
2.r	.
=417	=417
2.r	.
=418	=418
2.r	.
=419	=419
(8eL	.
8g#	.
8a	.
8b)	.
(8cc#L	.
8b#	.
=420	=420
8cc#L	.
8b	.
8a	.
8g#)	.
(8f#L	.
8e#	.
=421	=421
8f#L	.
8g#	.
8a	.
8f#)	.
(8bL	.
8a#	.
=422	=422
8bL	.
8a	.
8g#	.
8f#)	.
(8eL	.
8d#	.
=423	=423
8eL	.
8f#	.
8g#	.
8e)	.
!LO:TX:t=cresc.	!
(8f#L	<
8e#	.
=424	=424
8f#L	.
8e	.
8d	.
8c#)	.
4r	.
=425	=425
4r	.
4r	.
(8eL	.
8d#	.
=426	=426
8eL	.
8d	.
8c#	.
8B)	.
4r	.
=427	=427
4r	.
4r	[
!LO:TX:t=dol.	!
(8EL	p
8G#	.
=428	=428
8BL	.
8e	.
8g#	.
8b)	.
(8aL	.
8f#	.
=429	=429
8d#L	.
8B	.
8A	.
8F#)	.
(8G#L	.
8B	.
=430	=430
8AL	.
8G#	.
8F#	.
8E)	.
(8g#L	.
8f#	.
=431	=431
8eL	.
8d#	.
8c#	.
8B)	.
(8EL	.
8G#	.
=432	=432
8BL	.
8e	.
8g#	.
8b)	.
(8aL	.
8f#	.
=433	=433
8d#L	.
8B	.
8A	.
8F#)	.
(8G#L	.
8B	.
=434	=434
8AL	.
8G#	.
8F#	.
8E)	.
(8g#L	.
8f#	.
=435	=435
8eL	.
8d#	.
8c#	.
8B)	.
(8cc#L	.
8b#	.
=436	=436
8cc#L	.
8b	.
8a	.
8g#)	.
(8f#L	.
8e#	.
=437	=437
8f#L	.
8g#	.
8a	.
8f#)	.
(8bL	.
8a#	.
=438	=438
8bL	.
8a	.
8g#	.
8f#)	.
(8eL	.
8d#	.
=439	=439
8eL	.
8f#	.
8g#	.
8e)	.
(8aL	.
8g#	.
=440	=440
8aL	.
8b	.
8cc#	.
8dd#	.
8ee	.
8dd#	.
=441	=441
8eeL	.
8dd#	.
8ee	.
8b	.
8cc#	.
8a)	.
=442	=442
(8g#L	.
8f##	.
8g#	.
8b	.
8a	.
8f#)	.
=443	=443
(8eL	.
8d#	.
8e	.
!LO:TX:t=poco cresc.	!
8e#)	.
(8f#L	.
8e#	.
=444	=444
8f#L	.
8e	.
8d	.
8c#)	.
4d	.
=445	=445
4d	.
4d	.
(8eL	.
8d#	.
=446	=446
8eL	.
8d	.
8c#	.
8B)	.
4c#	p
=447	=447
4c#	.
4c#	.
4c#	.
=448	=448
4c#	.
4c#	.
4B 4d	.
=449	=449
4B 4d	.
4B 4d	.
4E 4c#	.
=450	=450
4E 4c#	.
4E 4c#	.
4E 4B	.
=451	=451
4E 4B	.
4E 4B	.
4E 4c#	.
=452	=452
4E 4c#	.
4E 4c#	.
4B 4d	.
=453	=453
4B 4d	.
4B 4d	.
4E 4c#	.
=454	=454
4E 4c#	.
4E 4c#	.
4E 4B	.
=455	=455
4E 4B	.
4E 4B	.
(8AL	.
8G#	.
=456	=456
8F#L	.
8G#	.
8A	.
8A#)	.
(8dL	.
8c#	.
=457	=457
8dL	.
8c#	.
8B	.
8d)	.
(8g#L	.
8f#	.
=458	=458
8eL	.
8f#	.
8g	.
8g#)	.
(8eL	.
8g#	.
=459	=459
8eL	.
8g#	.
8a	.
8e)	.
4f#	.
=460	=460
!LO:TX:t=cresc.	!
4f#	.
4d	.
4d	.
=461	=461
4c#	p
4c#	.
4d	.
=462	=462
4e	.
4E	.
4E	.
=463	=463
4A	.
4A	.
!LO:TX:t=cresc.	!
4F#	<
=464	=464
4F#	.
4F#	.
4F#	.
=465	=465
4F#	.
4F#	.
4B	.
=466	=466
4E	.
4E	.
4E	.
=467	=467
4E	.
4E	.
4A	.
=468	=468
4A	.
4A	.
4A	.
=469	=469
4A	.
4A	.
4A	.
=470	=470
4A	.
4A	.
4G#	.
=471	=471
4c#	.
4c# 4a	.
4d	f
=472	=472
4d	.
4A	.
4A	p
=473	=473
4A	.
4A	.
4A	.
=474	=474
4A	.
4A	.
4G#	.
=475	=475
4A	.
4C#	f
4C#	.
=476	=476
2.C#	sf
=477	=477
2.D#	sf
=478	=478
4A	.
4G#	.
4F#	.
=479	=479
4G#	.
4G#	.
4G#	.
=480	=480
2.B#	sf
=481	=481
2.c#	sf
=482	=482
4A	.
4F#	.
4G#	.
=483	=483
4C#	.
4C#	.
4C#	.
=484	=484
2.C#	sf
=485	=485
2.D#	sf
=486	=486
4A	.
4G#	.
4F#	.
=487	=487
4G#	.
4G#	.
4G#	.
=488||	=488||
*M2/2	*
2B#	.
2BB#	.
=489	=489
2C#	.
2c#	.
=490	=490
4A	.
4F#	.
4G#	.
4G#	.
=491	=491
4C#	.
4c#	.
[2A	p
=492||	=492||
*M3/4	*
2A	.
(8AL	.
8c#	.
=493	=493
8eL	.
8a	.
8cc#	.
8ee)	.
(8C#L	.
8E	.
=494	=494
!LO:TX:t=cresc.	!
8AL	.
8c#	.
8e	.
8c#)	.
(8c#L	.
8A	.
=495	=495
8dL	.
8A	.
8c#	.
8A	.
8B	.
8A)	.
=496	=496
(8c#L	.
8A	.
8B	.
8A)	.
(8AL	.
8a)	.
=497	=497
(8BL	.
8a	.
8A	.
8a)	.
(8BL	.
8A	.
=498	=498
8BL	.
8A	.
8c#	.
8A	.
8d	.
8c#)	.
=499	=499
(8dL	.
8A	.
8c#	.
8A	.
8B	.
8A)	.
=500	=500
(8c#L	.
8A	.
8B	.
8A	.
8A	.
8a)	.
=501	=501
(8BL	.
8A)	.
(8AL	.
8a)	.
(8f#	.
8d	.
=502	=502
8eL	.
8a	.
8cc#	.
8ee)	.
(8AL	.
8a	.
=503	=503
8BL	.
8A	.
8AL	.
8a)	.
(8f#	.
8d	.
=504	=504
8c#L	.
8e	.
8a	.
8cc#)	.
!LO:TX:t=dim.	!
(8AL	>
8a	.
=505	=505
8BL	.
8a	.
8A	.
8a)	.
(8f#	.
8d	]
=506	=506
8eL	p
8a	.
8cc#	.
8ee)	.
!LO:TX:t=piu p	!
[4c# [4e	.
=507	=507
2c# 2e	.
[4c# [4e	pp
=508	=508
2.c# 2.e	.
=509	=509
2.r	.
==510	==510
*k[]	*
*C:	*
*M4/4	*
!LO:TX:a:B:t=Molto Adagio	!
2r	.
=511	=511
2r	.
!LO:TX:t=sotto voce	!
(4C	.
4A	.
=512	=512
4G	.
4C) 4c	.
2C 2c	.
=513	=513
2C	.
2G	.
=514	=514
2F	.
2G	.
=515	=515
!LO:TX:t=cresc.	!
(2C	<
4D	.
4E)	.
=516	=516
2F	p
2r	.
=517	=517
2r	.
(4B	.
4D 4d	.
=518	=518
4E 4c	.
4F)	.
2E	<
=519	=519
2F	.
2G	.
=520	=520
2F	.
2E	.
=521	=521
2C	[
(4D	.
4F) 4G	>
=522	=522
2E 2G	p
2r	]
=523	=523
(4G	.
4C	.
4D	.
4E	.
=524	=524
4F	.
4E)	.
2E	.
=525	=525
2C	.
2G	.
=526	=526
2E 2G	.
2A	.
=527	=527
2F	.
2G 2g	.
=528	=528
2G 2g	f
2r	]
=529	=529
4r	.
(4g	p
4B	.
4c	.
=530	=530
4F	.
4G)	.
2F	.
=531	=531
!LO:TX:t=cresc.	!
2F	<
2F	<
=532	=532
2E	.
2F	.
=533	=533
(2F	.
4E	>
4C) 4G	]
=534	=534
2C	p
2r	.
=535	=535
4r	.
(4C	.
4A	.
4a)	.
=536	=536
(4e	.
4d)	.
2F 2c	p
=537	=537
!LO:TX:t=cresc.	!
2F 2c	<
2f	.
=538	=538
2e	.
2f	.
=539	=539
2F	p
2D	.
=540	=540
!LO:TX:t=cresc.	!
(4A	.
4A	.
4A	.
4A)	.
=541||	=541||
*k[f#c#]	*
*D:	*
*M3/8	*
8F#L 8A	f
8f#	.
8r	.
=542	=542
8AL	p
8e 8a	.
8r	.
=543	=543
8F#L	f
8d 8f#	.
8r	.
=544	=544
8F#L	p
8f# 8cc#	.
8r	.
=545	=545
8BL	f
8d 8b	.
8r	.
=546	=546
8dL	p
8dd	.
[8DJ	.
=547	=547
!LO:TX:t=cresc.	!
(8DL	<
8E	.
8F#)	.
=548	=548
(8AJ	.
8.EL	.
16G)	.
=549	=549
8F#J	f
8f#L	.
8r	.
=550	=550
8EJ	p
8aL	.
8r	.
=551	=551
8DL	f
8d	.
8r	.
=552	=552
8F#L	p
8f#	.
16r	.
16c 16d	.
=553	=553
8GL	f
8d 8b	.
8r	.
=554	=554
8AL 8d	p
8dd	.
[8DJ	.
=555	=555
!LO:TX:t=cresc.	!
(8DL	<
8E	.
8F#)	.
=556	=556
*^	*
(8c#L	4.E	.
8d	.	[
16c#	.	.
16d)	.	.
*v	*v	*
=557	=557
16ELL	p
16e	.
16r	.
16d	.
16r	.
16e	.
=558	=558
16r	.
16F# 16A	.
16r	.
16c#	.
16r	.
16d	.
=559	=559
16C#LL	.
16c#	.
16r	.
16d	.
16r	.
16e	.
=560	=560
16r	.
16f#	.
16r	.
16cc#	.
16r	.
16dd	.
=561	=561
16r	.
32B 32d	pp
32B 32d	.
16r	.
32B 32d	.
32B 32d	.
16r	.
32B 32e	.
32B 32e	.
=562	=562
16r	.
32c# 32e	.
32c# 32e	.
16r	.
32c# 32e	.
32c# 32e	.
16r	.
32c# 32e	.
32c# 32e	.
=563	=563
16r	.
!LO:TX:t=cresc.	!
32G 32e	<
32E 32G	.
16r	.
32E 32G	.
32E 32G	.
16r	.
32E 32G	.
32E 32G	.
=564	=564
16r	.
32E 32G	.
32E 32G	.
16r	.
32E 32G	.
32E 32G	.
16r	.
32E 32c#	.
32E 32c#	.
=565	=565
(8EL 8c#	rfz
8D) 8B	.
8D 8d	.
=566	=566
(8F#L 8d	.
[8G)	.
32GLLL	.
32F#	.
32E	.
32D	.
=567	=567
16C#LL	p
16c#	.
16r	.
16d	.
16r	.
16e	.
=568	=568
16r	.
16F# 16A	.
16r	.
16c#	.
16r	.
16d	.
=569	=569
16c#LL 16e	.
16c#	.
16r	.
16B 16d	.
16r	.
16c# 16e	.
=570	=570
16r	.
16f#	.
16r	.
16cc#	.
16r	.
16dd	.
=571	=571
16r	pp
32B 32d	.
32B 32d	.
16r	.
32B 32d	.
32B 32d	.
16r	.
32B 32g	.
32B 32g	.
=572	=572
16r	.
32c# 32e	.
32c# 32e	.
16r	.
32c# 32e	.
32c# 32e	.
16r	.
32c# 32e	.
32c# 32e	.
=573	=573
16r	.
!LO:TX:t=cresc.	!
32C# 32G	<
32C# 32G	.
16r	.
32C# 32G	.
32C# 32G	.
16r	.
32C# 32G	.
32C# 32G	.
=574	=574
16r	.
32C# 32G	.
32C# 32G	.
16r	.
32C# 32G	.
32C# 32G	.
16r	.
32E 32c#	.
32E 32c#	[
=575	=575
(8EL 8c#	rfz
8D) 8B	.
8D 8d	.
=576	=576
8F#L 8d	.
[8G	.
(32GLLL	.
32F#	>
32E	.
32D)	]
=577	=577
(8F#L	p
4D)	.
=578	=578
[4.D	.
=579	=579
[4.D	.
=580	=580
[4.D	.
=581	=581
16DLL	.
(16c#	<
16d	.
16c#	[
16d	>
16c)	.
=582	=582
(16cLL	]
16A#	.
16B	.
16c	.
16d	.
16B)	.
=583	=583
(16BLL	.
16G#	.
16A	.
16c#	.
16d	.
[16A)	.
=584	=584
(16ALL	.
16F#	.
16G	.
16c#	.
16d	.
16G)	.
=585	=585
!LO:TX:t=cresc.	!
(16GLL	<
16F#	.
16d	.
16A#	.
16D	.
16B)	.
=586	=586
(16dLL	.
16F#	.
16A	[
16F#	>
16A	.
16G)	]
=587	=587
32F#LLL	p
(32d	.
32f#	.
32e	.
!LO:TX:t=cresc.	!
32dLLL	<
32c#	.
32B	.
32A	.
32GLLL	.
32e	.
32c#	.
32G	.
=588	=588
32F#LLL	.
32d	.
32A	.
32F#	.
32FLLL	.
32d	.
32B	.
32F	[
32ELLL	>
32c#	.
32G)	.
32E	.
=589	=589
8F#L	p
!LO:TX:t=cresc.	!
[4D	<
=590	=590
8DL	.
8D	.
[8E	[
=591	=591
(16ELL	p
16F#)	.
!LO:TX:t=piu p	!
8DL	.
(8D	.
=592	=592
8DL)	.
8r	.
(8G	pp
=593	=593
8GL)	.
8r	.
8A	.
=594||	=594||
*M4/4	*
!LO:TX:a:B:t=Molto Adagio	!
4r	.
4.A	.
8r	.
4r	.
=595	=595
*k[]	*
*C:	*
(4C	.
4.A	.
8D) 8G	.
(4c	.
=596	=596
4e	.
4A)	.
(4F 4A	.
[4a)	.
=597	=597
(4a	.
4f	.
4G	.
4c)	.
=598	=598
(4A	.
4a	.
4cc	.
4g)	.
=599	=599
!LO:TX:t=cresc.	!
4f	<
4c	.
4B 4d	.
4c 4e	.
=600	=600
(4.a	p
8g	.
8fL	.
8g	.
4a)	.
=601	=601
(4a	.
4.d)	.
(8e	.
4G) 4d	.
=602	=602
8r	.
(8G 8e	.
4F)	.
!LO:TX:t=cresc.	!
(4E 4G	<
4G) 4e	.
=603	=603
(4c	.
[4cc)	.
(4cc	.
4G) 4g	.
=604	=604
2C 2c	.
[2C [2c	.
=605	=605
4C 4c	.
2f	.
4f	>
=606	=606
[2e	p
(8eL	.
8f	.
4g)	.
=607	=607
(4G	.
[4C)	.
(8CL	.
8D)	.
[4E	.
=608	=608
(8EL	.
8F	.
8G	.
8C)	.
(8cL	.
8d)	.
[4e	.
=609	=609
!LO:TX:t=cresc.	!
4e	<
(4c	.
4E	.
4g)	.
=610	=610
(4G 4e	.
4ee)	.
2cc	.
=611	=611
2d 2f	.
2c 2e	.
=612	=612
2.B 2.d	f
4G	p
=613	=613
(4g	.
4.c)	.
8B 8d	.
*^	*
[4e	[4G	.
=614	=614	=614
(8eL	4G	.
8f)	.	.
4g	[4G	.
4G	2r	.
[4F	.	.
*v	*v	*
=615	=615
!LO:TX:t=cresc.	!
(4F	<
4c	.
4B	.
[4f)	.
=616	=616
(4f	.
4e	.
4cc	.
[4c)	.
=617	=617
4c	.
4B	.
4G 4g	>
4G	]
=618	=618
4F 4A	p
4F	.
2r	.
=619	=619
(4c	.
4a)	.
(4C	.
4A)	.
=620	=620
8r	.
(8e	.
4d)	.
(4A	.
[4f)	.
=621	=621
!LO:TX:t=cresc.	!
(4f	<
4cc	.
4b	.
[4f)	.
=622	=622
(4f	.
4e)	.
(4c	.
4a)	.
=623	=623
(4A	p
4a	.
4b	.
4d)	.
=624	=624
!LO:TX:t=cresc.	!
[2c#	.
8c#L	.
(8c#	.
4e)	.
=625||	=625||
*k[f#c#]	*
*D:	*
*M3/8	*
8DJ	f
8f#L	.
8r	.
=626	=626
8eL	p
8ee	.
8r	.
=627	=627
8BL	f
8b	.
8r	.
=628	=628
8c#L	p
8cc#	.
8r	.
=629	=629
8GL	f
8g 8b	.
8r	.
=630	=630
8AL	p
8a	.
[8DJ	.
=631	=631
!LO:TX:t=cresc.	!
8DL	<
8A	.
8F# 8B	.
=632	=632
(8AL	.
8E 8B	>
16E	>
16E) 16G	]
=633	=633
8F#L	f
8f#	.
8r	.
=634	=634
8C#L	p
8c# 8e	.
8r	.
=635	=635
8BL	f
8f# 8dd	.
8r	.
=636	=636
8AL	p
8a 8cc#	.
8r	.
=637	=637
8GL	f
8d 8b	.
8r	.
=638	=638
8F#L	p
8f# 8a	.
16DLL	.
[16d	.
=639	=639
!LO:TX:t=cresc.	!
16dLL	<
8d	.
8e	.
16f#	.
=640	=640
16r	.
(16aJJ	.
8.eL	[
16d)	>
=641	=641
16eLL	p
16E	.
16r	.
16d	.
16r	.
16e	.
=642	=642
16r	.
16f#	.
16r	.
16c#	.
16r	.
16d	.
=643	=643
16c#LL	.
16C#	.
16r	.
16d	.
16r	.
16e	.
=644	=644
16r	.
16f#	.
16r	.
16cc#	.
16r	.
16dd	.
=645	=645
16r	.
32B	pp
32B	.
16r	.
32B 32d	.
32B 32d	.
16r	.
32B 32g	.
32B 32g	.
=646	=646
16r	.
32c# 32e	.
32c# 32e	.
16r	.
32c# 32e	.
32c# 32e	.
16r	.
32c# 32e	.
32c# 32e	.
=647	=647
!LO:TX:t=cresc.	!
16r	.
32C# 32G	<
32C# 32G	[
16r	.
32C# 32G	.
32C# 32G	.
16r	.
32C# 32G	.
32C# 32G	.
=648	=648
16r	.
32C# 32G	.
32C# 32G	.
16r	.
32C# 32G	.
32C# 32G	.
32C#LLL 32G	.
32C# 32G	.
32E 32c#	.
32E 32c#	[
=649	=649
(8EL 8c#	sf
8D) 8B	.
[8D [8d	.
=650	=650
8DL 8d	.
[8A	>
(16ALL	.
32c#	.
32d)	]
=651	=651
(8eL	p
4a)	.
=652	=652
!LO:TX:t=pizz.	!
16F#LL	.
16f#	.
16g	.
16c#	.
16d	.
16F#	.
=653	=653
16c#LL	.
16cc#	.
16dd	.
16d	.
16e	.
16ee	.
=654	=654
16F#LL	.
16f#	.
16g	.
16c#	.
16f#	.
16F#	.
=655	=655
!LO:TX:t=arco	!
32BLLL	pp
32B 32d	.
32B 32d	.
32r	.
32r	.
32B 32d	.
32B 32d	.
32r	.
32r	.
32B 32e	.
32B 32e	.
32r	.
=656	=656
32r	.
32c# 32e	.
32c# 32e	.
32r	.
32r	.
32c# 32e	.
32c# 32e	.
32r	.
32r	.
32c# 32e	.
32c# 32e	.
32r	.
=657	=657
!LO:TX:t=cresc.	!
32r	<
32G 32e	.
32G 32e	.
32r	.
32r	.
32G 32e	.
32G 32e	.
32r	.
32r	.
32G 32e	.
32G 32e	.
32r	.
=658	=658
32GLLL 32e	.
16r	.
32C# 32G	.
32C#LLL 32G	.
16r	.
32C# 32G	.
32C#LLL 32G	.
32C# 32G	.
32C# 32G	.
32C# 32G	.
=659	=659
(16cc#LL	sf
16f#)	.
(16f#LL	.
16d)	.
(16dLL	.
16F#)	.
=660	=660
(8F#L	.
8G)	.
32F#LLL	>
(32F#	.
32E	.
32D)	]
=661	=661
[4.D	p
=662	=662
(8DL	.
4G)	.
=663	=663
(8DL	.
4F#)	.
=664	=664
(8DL	.
4B)	.
=665	=665
16r	<
(16c#	.
16d	.
16c#	[
16d	>
16c)	]
=666	=666
(16cLL	.
16A#	.
16B	.
16c	.
16d	.
16B)	.
=667	=667
(16BLL	.
16G#	.
16A	.
32c#	.
32d)	.
(16d	.
[16A)	.
=668	=668
(16ALL	.
16F#	.
16GLL	.
32c#	.
32d)	.
(16dLL	.
16G)	.
=669	=669
!LO:TX:t=cresc.	!
(16GLL	<
32E#	.
32F#	.
16dLL	.
16A#	.
16d	.
16B)	.
=670	=670
(16dLL	.
16F#	.
16A	.
16F#	.
16A	>
16G)	]
=671	=671
32F#LLL	p
(32d	.
32f#	.
32e	.
!LO:TX:t=cresc.	!
32dLLL	<
32c#	.
32B	.
32A	.
32GLLL	.
32e	.
32c#	.
32G	.
=672	=672
32F#LLL	.
32d	.
32A	.
32F#	.
32FLLL	.
32d	.
32B	.
32F	[
32ELLL	>
32c#	.
32G	.
32E)	.
=673	=673
8F#J	p
!LO:TX:t=cresc.	!
(16f#LL	<
16F#)	.
(16GLL	.
16g)	.
=674	=674
(16aLL	.
16A)	.
(16BLL	.
16b)	[
(16c#LL	.
16cc#)	.
=675	=675
(16cc#LL	p
16dd)	.
8DL 8d	.
(8D 8d	.
=676	=676
8DL) 8d	.
8r	.
(8G	pp
=677	=677
8GL)	.
8r	.
8A	.
=678||	=678||
*k[]	*
*C:	*
*M4/4	*
!LO:TX:a:B:t=Molto adagio	!
4r	.
4.A	<
8r	>
4r	]
=679	=679
!LO:TX:t=Mit innigster Empfindung	!
8r	.
(8c	.
[4a)	.
(16aLL	.
16g)	.
[8cc	.
(16ccLL	.
16dd)	.
[8cc	.
=680	=680
(8ccL	.
8ee	.
8ff	.
8A) 8f	.
*^	*
4g	2A	p
4f	.	.
*v	*v	*
=681	=681
1r	]
=682	=682
2r	.
2c	.
=683	=683
2c	p
2B	.
=684	=684
2A	.
2B	<
=685	=685
8r	[
(8C	p
[4A)	.
(16ALL	.
16G)	.
[8c	.
(16cLL	.
16d)	.
[8c	.
=686	=686
(8cL	.
8F	.
8G	.
[8A)	.
(16ALL	.
16F)	<
[8G	.
(16GLL	.
16A)	.
8G	.
=687	=687
!LO:TX:t=cresc.	!
(16ELL	<
16D)	.
[8E	.
(16ELL	.
16F)	.
8E	.
8r	.
[8B	.
(16BLL	.
16c)	.
8B	.
=688	=688
8r	.
[8c	.
(16cLL	.
16d)	.
8c	.
2g	.
=689	=689
2g	.
2g	.
=690	=690
!LO:TX:t=dim.	!
8fL	>
8F	.
[4g	.
(16gLL	.
16e)	.
[8f	.
(16fLL	.
16g)	.
[8f	]
=691	=691
!LO:TX:t=p piu p	!
2f	.
2e	.
=692	=692
2F	pp
2r	.
=693	=693
8r	.
(8c	.
[4a)	.
(16aLL	.
16g)	.
[8cc	.
(16ccLL	.
16dd)	.
8cc	.
=694	=694
8eL 8cc	.
(8e	.
4f	.
!LO:TX:t=cresc.	!
!LO:TX:t=cresc.	!
4g	.
[4f)	.
=695	=695
8fL	p
(8C	.
[4A)	.
(16ALL	.
16G)	.
[8c	.
(16cLL	.
16d)	.
[8c	.
=696	=696
(8cL	.
8F	.
8G	.
[8A)	.
(16ALL	.
16F)	.
[8G	.
(16GLL	.
16A)	.
8G	.
=697	=697
(8AL	.
8C)	.
4a	.
!LO:TX:t=cresc.	!
(8dL	<
8B)	.
4d 4b	.
=698	=698
(16ccLL	.
16b)	.
[8cc	.
(16ccLL	.
16dd)	.
[8cc	.
(16ccLL	.
16d)	.
[8e	.
(16eLL	.
16f)	.
[8e	[
=699	=699
16eLL	f
16e	.
[8f	.
(16fLL	.
16g)	.
8f	.
(16gLL	.
16B)	.
[8c	.
(16cLL	.
16d)	.
[8c	.
=700	=700
(16cLL	.
16b)	.
[8cc	sf
(16ccLL	.
16dd)	.
8cc	.
(16fLL	sf
16c)	.
[8d	.
(16dLL	.
16c)	.
8d	.
=701	=701
2C 2c	sf
2f	sf
=702	=702
2G 2e	sf
2f	sf
=703	=703
2G 2e	sf
2B	sf
=704	=704
8r	.
!LO:TX:t=dim.	!
(8E	>
8F	.
[8G)	.
(16GLL	.
16E)	.
[8F	.
(16FLL	.
16G)	.
[8A	.
=705	=705
(8AL	.
8G	.
8A	.
[8c)	.
(16cLL	.
16G)	.
(8.A	.
16cLL)	.
8cc	]
=706	=706
(8CL	p
8E	.
8F	.
[8G)	.
!LO:TX:t=piu p	!
!LO:TX:t=piu p	!
(16GLL	.
16E)	.
[8F	.
(16FLL	.
16G)	.
8A	.
=707	=707
(16BLL	.
16c)	.
[8d	.
(16dLL	.
16e)	.
8f	.
4r	.
4G 4e	<
=708	=708
2G 2e	p
2G 2d	>
=709	=709
2d	<
2c	>
=710	=710
2e 2cc	]
!LO:TX:t=cresc.	!
2d 2f	.
=711	=711
2.B 2.f	sf
4C 4c	>
=712	=712
(2C 2c	p
2G	.
=713	=713
2F	.
2E)	.
=714	=714
(2f	.
[2e)	.
=715	=715
8eL	.
(8e	.
4.d	.
8dd	.
4cc)	.
=716	=716
1C 1c	.
=717	=717
2f	.
[2G [2e	.
=718	=718
!LO:TX:t=cresc.	!
4G 4e	<
(4G 4g	.
4G 4f	.
4G) 4g	.
=719	=719
2A 2f	p
2a	.
=720	=720
!LO:TX:t=piu p	!
[4cc	.
(8cc	.
8cc)	.
[4a	.
(8a	.
8a)	.
=721	=721
2a	pp
2r	.
=722	=722
*k[f#c#g#]	*
*A:	*
!LO:TX:a:B:t=Alla Marcia, assai vivace	!
4r	.
8.EL	f
16A	.
(8.c#L	>
16e)	]
8dL	p
16r	.
16E	.
=723	=723
8EL	.
8r	.
8E	.
8r	.
2r	.
=724	=724
8.AL	f
16E	.
[4C#	.
(8.C#L	>
16A)	]
8F#L	p
16r	.
16D	.
=725	=725
8EL	.
8r	.
8e	.
8r	.
(16ELL	.
16G#	.
16B	.
16d)	.
4r	.
=726	=726
1E 1B	.
=727	=727
2.E 2.A	.
4F# 4A	.
=728	=728
(16F#LL	.
16E#	.
16F#	.
16E#	.
16F#LL	.
16E#	.
16F#	.
16E#)	.
!LO:TX:t=cresc.	!
(8G#L	<
8F#)	.
8F#	.
16r	.
16F#	[
=729	=729
8EL	f
8r	.
8B 8f#	.
8r	.
8BL 8e	.
8r	.
4r	.
=730:|!|:	=730:|!|:
1r	.
=731	=731
!LO:TX:t=dol.	!
(4.G#	.
8F#	.
8EL	.
8c#	.
8B)	.
16r	.
16G#	.
=732	=732
!LO:TX:t=cresc.	!
8AL	<
8r	.
8E	.
8r	.
8AL	.
8r	.
4r	.
=733	=733
(4.c#	.
8B	.
8AL	.
8f#	.
8e)	.
16r	[
16c#	.
=734	=734
8.AL	f
16d	.
[4f#	sf
(8.f#L	.
16d)	.
8e	.
16r	.
16f#	.
=735	=735
8.BL	.
16d	.
4f#	sf
8.G#L	.
16B	.
4e	sf
=736	=736
8.eL	f
16c#	.
8.aL	sf
16e	.
(8.c#L	.
16E)	.
8G#L	.
16r	.
16A	.
=737	=737
8EL	.
8r	.
8E 8A	.
8r	.
2r	.
=738	=738
4c#	.
8.AL	sf
16E	.
(8.C#L	.
16A)	.
8F#L	.
16r	.
16D	.
=739	=739
8EL	.
8r	.
8e	.
8r	.
4r	.
(16BLL	p
16d#	.
16f#	.
16B)	.
=740	=740
2.F# 2.A	.
4F# 4B	.
=741	=741
2G# 2B	.
(16ELL	.
16G#	.
16B	.
16d)	.
4r	.
=742	=742
4r	.
8.EL	.
16G#	.
4B	.
4r	.
=743	=743
4r	.
8.C#L	.
16E	.
(8AL	.
8c#	.
8F#L)	.
16r	.
16d	.
=744	=744
(16BLL	.
16A#	.
16B	.
16A#	.
16BLL	.
16A#	.
16B	.
16A#)	.
!LO:TX:t=cresc.	!
8c#L	<
8B	.
8E 8B	.
16r	.
16E 16B	[
=745	=745
8EL 8c#	f
8r	.
8e 8b	.
8r	.
8eL 8a	.
8r	.
4r	.
=746:|!	=746:|!
*k[]	*
*C:	*
!LO:TX:a:B:t=Piu Allegro	!
8EL	p
8r	.
8G#	.
8r	.
8AL	.
8r	.
8c	.
8r	.
=747	=747
8CL 8c	f
8r	.
8c 8g	.
8r	.
8cL 8a	.
8r	.
8c 8a	.
8r	.
=748	=748
2E 2G	p
2E 2G	.
=749	=749
2E 2G	.
2E 2G	.
=750	=750
4E 4G	.
!LO:TX:t=cresc.	!
4c#	<
4d	.
4d	.
=751	=751
4d	p
!LO:TX:B:t=Rit.	!
4r	.
2r	.
=752	=752
!LO:TX:a:B:t=A tempo	!
8eL	f
8r	.
8A	.
8r	.
8aL	.
8r	.
8f	.
8r	.
=753	=753
2A	fp
2A	.
=754	=754
2A	.
2A	.
=755	=755
2E 2G	.
2E 2G	.
=756	=756
!LO:TX:t=cresc.	!
2E 2G	<
2E 2G	.
=757	=757
4E 4G	p
4r	.
!LO:TX:B:t=Rit.	!
2r	.
=758	=758
!LO:TX:B:t=Accel.	!
4r	.
4A	pp
4A 4f	.
4r	.
=759	=759
4r	.
!LO:TX:t=cresc.	!
4A 4g	<
4c#	.
4r	.
=760	=760
4r	.
4a	.
4d	.
4B 4d	ff
=761||	=761||
*M2/2	*
8BL 8d	.
!LO:TX:a:B:t=Presto	!
8r	.
4r	.
2r	.
=762	=762
1r	.
=763	=763
1r	.
=764	=764
1r	.
=765	=765
4r	.
4B	>
4B	.
4c	]
=766	=766
4r	.
4c	p
4r	.
4B	.
=767	=767
!LO:TX:a:B:t=poco Adagio	!
2r	.
4r	.
8r	.
8r	.
=768||	=768||
*M3/4	*
4r	.
2E 2c	<
=769	=769
4r	[
2E 2d	<
=770	=770
4r	[
2E 2c	<
=771	=771
4r	[
2E 2d	<
=772	=772
4r	[
!LO:TX:t=cresc.	!
2E 2c	<
=773	=773
4r	.
2E 2B	.
=774	=774
4r	.
2C 2B-	.
=775	=775
4r	[
2C 2A	>
=776	=776
4r	]
2E 2c	p
=777	=777
4r	.
(4.D 4.B-	.
8C) 8c	.
=778	=778
8r	.
8C 8c	p
(8aL	.
8e	.
8cc)	.
8a	.
=779	=779
!LO:TX:t=cresc.	!
(2a	<
4g#)	.
=780	=780
(4.a	.
8b	.
8cc	.
8dd	.
=781	=781
4ee)	.
(4ee	.
4ee)	.
=782	=782
4ee	.
2C 2c	.
=783	=783
4r	[
2C 2c	.
=784	=784
4r	.
2E 2c	p
=785	=785
4r	.
*^	*
(4.B	2D	<
8d)	.	[
*v	*v	*
=786	=786
4r	.
2F 2A	.
=787	=787
4r	.
!LO:TX:t=cresc.	!
2E 2A	<
=788	=788
4r	.
2E 2B	.
=789	=789
4r	.
([4F#	.
8F#L	.
8G#)	.
=790	=790
4A	.
2E 2c	.
=791	=791
4r	[
([4B [4d	rfz
8BL 8d	.
8c)	.
=792	=792
4r	.
2E 2B	>
=793	=793
4r	]
*^	*
(8cL	(4.E	p
4c#	.	.
8d)	8D)	.
*v	*v	*
=794	=794
4r	.
(4d	.
4f)	.
=795	=795
!LO:TX:t=cresc.	!
2.a	.
=796	=796
4r	<
(4e	.
4g)	.
=797	=797
(2b	.
8f#L	.
8g#	.
=798	=798
4a)	.
(4a	.
4cc)	.
=799	=799
2ee	rfz
4ee	.
=800	=800
(4.ee	>
8b	.
8dd	]
8cc)	.
=801	=801
8aJ	p
(8D#L	f
8E)	.
(8D#L	.
8E)	.
8EJ	.
=802	=802
[2.E	>
=803	=803
8EJ	p
(8D#L	f
8E)	.
(8D#L	.
8E)	.
8EJ	.
=804	=804
[2.E	>
=805	=805
8EJ	p
(8D#L	f
8E)	.
(8D#L	.
8E)	.
8EJ	.
=806	=806
2.E	f
=807	=807
8EL 8B	f
8r	.
8bL	.
8r	.
8eL	.
8r	.
=808	=808
8aL	.
8r	.
8eL	.
8r	.
8EL	.
8r	.
=809	=809
8AJ	.
(8aL	f
8g#)	.
(8aL	.
8g#)	.
8cJ 8a	.
=810	=810
2.c 2.a	>
=811	=811
8g#J 8b	p
(8aL	f
8g#)	.
(8aL	.
8g#)	.
8g#J	.
=812	=812
2.g#	>
=813	=813
8ccJ	p
(8fL	f
8e)	.
(8fL	.
8e)	.
8fJ	.
=814	=814
8eL	sf
(8fL	.
8e)	.
(8fL	.
8e)	.
8eJ	.
=815	=815
8cL 8e	.
8r	.
8cL	.
8r	.
8BL 8d	.
8r	.
=816	=816
8GL 8e	.
8r	.
8GL 8d	.
8r	.
8dL 8dd	.
8r	.
=817	=817
8dL 8dd	.
8r	.
8GL	p
8r	.
8AL	.
8r	.
=818	=818
8BL	.
8r	.
8AL	.
8r	.
8GL	.
8r	.
=819	=819
8GL	.
8r	.
4r	.
(8BL	.
8b)	.
=820	=820
(8bL	.
8a)	.
4r	.
(8AL	.
8a)	.
=821	=821
(8aL	.
8g)	.
4r	.
(8GL	.
8g)	.
=822	=822
(8gL	.
8f#)	.
4r	.
(8f#L	.
8f	.
=823	=823
4e)	.
(4E	.
8DL	.
8d)	.
=824	=824
(8CL	.
8c	.
8BL	.
8c	.
8A)	.
[8G	.
=825	=825
(8GL	.
8F#	.
8G	.
8E	.
8F#	.
8G)	.
=826	=826
2B	p
4E 4G	.
=827	=827
2C 2c	.
4C 4c	.
=828	=828
2B	>
!LO:TX:t=cresc.	!
[4C [4c	<
=829	=829
2C 2c	.
[4C [4g	.
=830	=830
2C 2g	.
[4C [4c	f
=831	=831
4.C 4.c	.
8r	.
[4B [4e	sf
=832	=832
4.B 4.e	.
8r	.
[4A [4e	sf
=833	=833
4.A 4.e	.
8r	.
[4G [4e	sf
=834	=834
4.G 4.e	.
8r	.
4r	.
=835	=835
2.r	.
=836	=836
(8BL	p
8c	.
8e	.
8f	.
8f#	.
8a	.
=837	=837
8f#L	.
8g)	.
4r	.
(8gL	.
8b	.
=838	=838
8f#L	.
8a	.
8g	.
8f#)	.
[4C [4c	ff
=839	=839
4.C 4.c	.
8r	.
[4B	sf
=840	=840
4.B	.
8r	.
[4A [4e	sf
=841	=841
4.A 4.e	.
8r	.
[4G [4g	sf
=842	=842
4.G 4.g	.
8r	.
4r	.
=843	=843
2.r	.
=844	=844
(8G#L	p
8A	.
8B	.
8c	.
8e	.
8f#)	.
=845	=845
2.f	.
=846	=846
(4d	.
4B)	.
4G	.
=847	=847
!LO:TX:t=cresc.	!
2.G	<
=848	=848
8DL	.
8E	.
8F	.
8E	.
8F	.
8G	[
=849	=849
!LO:TX:t=dim.	!
[2.A	>
=850	=850
(4A	.
4B)	.
4B	p
=851	=851
!LO:TX:t=piu p	!
4A	.
[2A	.
=852	=852
(4A	.
4G#	.
4B	pp
=853	=853
4B-	.
4A	.
[4A-	.
=854	=854
4A-	.
[2G	.
=855	=855
4G	.
2F)	.
=856	=856
(2E	.
4B)	.
=857	=857
4r	.
2E 2c	p
=858	=858
4r	.
2E 2d	.
=859	=859
4r	.
2E 2c	.
=860	=860
4r	.
2E 2d	.
=861	=861
4r	.
!LO:TX:t=cresc.	!
2E 2c	<
=862	=862
4r	.
2E 2B	.
=863	=863
4r	.
2C 2B-	.
=864	=864
4r	[
2C 2c	>
=865	=865
4r	]
2E 2c	p
=866	=866
4r	.
(4.D 4.B	.
8C) 8c	]
=867	=867
(4.a	.
8e	.
8cc)	.
8a	.
=868	=868
!LO:TX:t=cresc.	!
(2a	<
4g#)	.
=869	=869
(4.a	.
8b	.
8cc	.
8dd	.
=870	=870
4ee)	.
(4ee	.
4ee)	.
=871	=871
2ee	.
4ee	.
=872	=872
4r	[
2C 2c	.
=873	=873
4r	.
2E 2c	p
=874	=874
4r	.
*^	*
4.B	2D	<
8d	.	[
*v	*v	*
=875	=875
4r	[
2F 2A	.
=876	=876
4r	.
!LO:TX:t=cresc.	!
2E 2A	<
=877	=877
4r	.
2G 2B	.
=878	=878
4r	.
([4B	.
8BL	.
8f)	.
=879	=879
4e	.
2E 2c	.
=880	=880
4r	[
(4B 4d	rfz
4c)	.
=881	=881
4r	.
2E 2B	.
=882	=882
4r	.
(8cL	p
8c#	.
8e	.
8d)	.
=883	=883
4r	.
(4d	.
4f)	.
=884	=884
!LO:TX:t=cresc.	!
2.a	<
=885	=885
4r	.
(4e	.
4g)	.
=886	=886
([2b	.
8bL	.
8g#)	.
=887	=887
4r	.
(4a	.
4cc)	.
=888	=888
2ee	rfz
4ee	.
=889	=889
(4.ee	.
8b	.
8dd	.
8cc)	.
=890	=890
4a	f
8fL	sf
8r	.
8cL	.
8r	.
=891	=891
(8GL	f
8F#	.
8GL)	.
8r	.
8GL	.
8r	.
=892	=892
4r	.
8r	.
(8CL	.
8c)	.
8r	.
=893	=893
4r	.
8r	.
(8CL	.
8c)	.
8r	.
=894	=894
4r	.
8r	.
(8GL	.
8g)	.
8r	.
=895	=895
(8FL	f
8G	.
8F)	.
8r	.
8FL	sf
8r	.
=896	=896
4r	.
8r	.
(8GL	.
8d)	.
8r	.
=897	=897
4r	.
8r	.
(8GL	.
8f)	.
8r	.
=898	=898
4r	.
8r	.
(8dL	.
8b)	.
8r	.
=899	=899
!LO:TX:t=dim.	!
(8GL	>
8d	.
8G)	.
(8gL	.
8f	.
8e)	.
=900	=900
(8FL	.
8G	.
8F)	.
(8dL	.
8c	.
8d)	.
=901	=901
(8EL	p
8F	.
8E)	.
(8gL	.
8b	.
!LO:TX:t=piu p	!
8cc)	.
=902	=902
(8DL	.
8E	.
8D)	.
(8fL	.
8c	.
8d)	.
=903	=903
(8GL	pp
8g	.
8f#	.
8f	.
8g	.
[8e	.
=904	=904
8eL	.
8d	.
8c#	.
8c	.
8d	.
8B	.
=905	=905
8B-L	.
8A	.
8G#	.
8G	.
8A	.
8F	.
=906	=906
8EL	.
8E-	.
8E	.
8A	.
8D	.
8G)	.
=907	=907
!LO:TX:t=cresc.	!
(8d#L	<
8e	.
8A	.
8d	.
8B	.
8c	.
=908	=908
8FL	.
8B	.
8E	.
8A	.
8F#	.
8G)	.
=909	=909
8CL	.
(8f	.
8B	.
8e	.
8c#	.
8d	.
=910	=910
8BL	.
8c	.
8g	.
8c	.
8f	.
8B)	.
=911	=911
4F 4G	f
8FL 8G	.
8r	.
8FL 8G	.
8r	.
=912	=912
8r	.
(8eL	.
8f)	.
8r	.
(8A#L	.
8B)	.
=913	=913
8r	.
(8c#L	.
8d)	.
8r	.
(8eL	.
8f)	.
=914	=914
8r	.
(8cc#L	.
8dd)	.
(8cc#L	.
8ee	.
8dd)	.
=915	=915
2.E	sf
=916	=916
8EL	.
8r	.
8dL	.
8r	.
8cL	.
8r	.
=917	=917
8aL	.
8r	.
8aL	.
8r	.
8g#L	.
8r	.
=918	=918
8aJ	.
(8AL	.
8G#)	.
(8AL	.
8G#)	.
8AJ	.
=919	=919
2.A	>
=920	=920
8G#L	p
4E	f
4E	.
8E	.
=921	=921
[2G# [2B	>
(8G#L 8B	.
8A)	.
=922	=922
8AJ	p
(8AL	f
8G#)	.
(8AL	.
8C)	.
(8CJ	.
=923	=923
8DL)	.
(8CL	.
8D)	.
(8CL	.
8D)	.
(8CJ	.
=924	=924
8GL)	.
8r	.
8GL	.
8r	.
8GL	.
8r	.
=925	=925
8ccL	.
8r	.
8ccL	.
8r	.
8bL	.
8r	.
=926	=926
8gL	.
8r	.
8ccL	p
8r	.
8ddL	.
8r	.
=927	=927
8eeL	.
8r	.
8ddL	.
8r	.
8ccL	.
8r	.
=928	=928
4e	.
4r	.
(8eL	.
8ee)	.
=929	=929
(8eeL	.
8dd)	.
4r	.
(8dL	.
8dd)	.
=930	=930
(8ddL	.
8cc)	.
4r	.
(8c	.
8cc)	.
=931	=931
(8ccL	.
8b)	.
4r	.
(8BL	.
8b)	.
=932	=932
(8AL	.
8a)	.
4r	.
4r	.
=933	=933
4r	.
(8gL	.
8f	.
8e	.
8g)	.
=934	=934
(2.a	<
=935	=935
2b)	>
(4E	]
=936	=936
2F)	.
[4F	<
=937	=937
2F	>
!LO:TX:t=cresc.	!
[4f	<
=938	=938
2f	.
[4f	.
=939	=939
2f	.
[4F [4c	f
=940	=940
4.F 4.c	.
8r	.
[4E [4c	sf
=941	=941
4.E 4.c	.
8r	.
[4D [4d	sf
=942	=942
4.D 4.d	.
8r	sf
[4C [4c	.
=943	=943
4.C 4.c	.
8r	.
4r	.
=944	=944
2.r	.
=945	=945
4r	.
4r	.
(8c#L	p
8d	.
=946	=946
8BL	.
8c	.
8d#	.
8e	.
8g#	.
8a	.
=947	=947
8a#L	.
8b	.
8a	.
8g#)	.
[4F	ff
=948	=948
4.F	.
8r	.
[4E	sf
=949	=949
4.E	.
8r	sf
[4D [4d	.
=950	=950
4.D 4.d	.
8r	sf
[4C [4c	.
=951	=951
4.C 4.c	.
8r	.
4r	.
=952	=952
2.r	.
=953	=953
(8c#L	p
8d	.
8e	.
8f	.
8a	.
8b-)	.
=954	=954
2.b-	.
=955	=955
4g	.
4e	.
4c	.
=956	=956
!LO:TX:t=cresc.	!
(8EL	<
8F	.
8G	.
8E	.
8F	.
8G	.
=957	=957
8AL	.
8B-	.
8c	.
8A	.
8B-	.
8c)	.
=958	=958
!LO:TX:t=dim.	!
(8dL	>
8e	.
8f	.
8d	.
8F	.
8c	.
=959	=959
4B-	.
4E	.
[4G)	.
=960	=960
(4G	p
4F)	.
[4a	.
=961	=961
(8aL	.
8g	.
8f	.
8e	.
4g)	.
=962	=962
(4e	.
4f)	.
4r	.
=963	=963
4r	.
4r	.
(4g	pp
=964	=964
4e	.
4f	.
[4A	.
=965	=965
4A	.
4B-	.
[4B	.
=966	=966
4B	.
4c)	.
!LO:TX:t=sempre pp	!
(4C	.
=967	=967
4E-	.
4D	.
[4G)	.
=968	=968
(4G	.
4g	.
[4c	.
=969	=969
4c	.
4a	.
4d	.
=970	=970
4f)	.
4e	.
(4B	.
=971	=971
4f	.
4e	.
4g	.
=972	=972
4e	.
4f	.
[4B-	.
=973	=973
4B-	.
4B	.
4c	.
=974	=974
4G	.
4c)	.
4r	.
=975	=975
4r	.
4r	.
(4e	.
=976	=976
4cc#	.
4dd)	.
(4g	.
=977	=977
4f#	.
4g)	.
([4D	.
=978	=978
8DL	.
8F	.
4E)	.
(4E	.
=979	=979
4E-	.
4D	.
4G	.
=980	=980
4F#	.
4G)	.
4r	.
=981	=981
!LO:TX:t=sempre pp	!
4r	.
4E	.
([4d	.
=982	=982
4d	.
4c	.
[4a	.
=983	=983
4a	.
4f#	.
[4e	.
=984	=984
4e	.
4c)	.
(4c	.
=985	=985
!LO:TX:t=cresc.	!
4.B	<
8E	.
8d)	.
([8B	.
=986	=986
4B	.
4A)	.
4r	.
=987	=987
(4.f	.
8G	.
8f)	.
[8d	.
=988	=988
(4d	.
4c)	.
4r	.
=989	=989
(4.d	.
8G	.
8f	.
8d)	.
=990	=990
!LO:TX:B:t=Accel.	!
4r	.
8e	.
8G	.
8e	.
8c	.
=991	=991
4r	.
8e	.
8G	.
8e	.
8c	.
=992	=992
(4.dd	.
8b	.
8dd	.
8e)	.
=993	=993
2.r	.
=994	=994
(4.d	.
8B	.
8d)	.
8E	.
=995	=995
2.r	.
=996	=996
4r	.
8r	.
(8D	.
8B	.
8G#)	.
=997	=997
4r	.
8r	.
(8d	.
8b#	.
8g#)	.
=998	=998
(8bL	.
8g#	.
8dd)	.
(8ddL	.
8cc	.
8dd)	[
=999||	=999||
!LO:TX:t=Presto	!
8ccL	f
8a	.
8AL	.
8A	.
8A	.
8A	.
=1000	=1000
8BL	sf
8b	.
8BL	.
8B	.
8B	.
8B	.
=1001	=1001
8cL	sf
8A	.
8FL	.
8F	.
8F	.
8F	.
=1002	=1002
8EL	sf
8E	.
8E	.
8E	.
8EL	.
8E	.
=1003	=1003
8CL	sf
8C	.
8C	.
8C	.
8CL 8G	.
8C 8G	.
=1004	=1004
8FL	sf
8F	.
8F	.
8F	.
8F	.
8F	.
=1005	=1005
8GL	sf
8G	.
8G	.
8G	.
8GL	.
8G	.
=1006	=1006
8GL	sf
8G	.
8G	.
8G	.
8DL 8A	.
8D 8A	.
=1007	=1007
8DL 8A	sf
8D 8A	.
8D 8A	.
8D 8A	.
8D 8A	.
8D 8A	.
=1008	=1008
8C#L	sf
8C#	.
8C#	.
8C#	.
8CL	.
8C	.
=1009	=1009
8EL	sf
8E	.
8E	.
8E	.
8E	.
8E	.
=1010	=1010
8D#L	sf
8D#	.
8D#	.
8D#	.
8DL	.
8D	.
=1011	=1011
8CL	sf
8c	.
8AL	.
8A	.
8E 8A	.
8E 8A	.
=1012	=1012
8EL 8G#	sf
8E 8G#	.
8E 8G#	.
8E 8G#	.
8EL 8A	.
8E 8A	.
=1013	=1013
8EL 8G#	>
8E 8G#	.
8E 8G#	.
8E 8G#	.
8EL 8G#	p
8E 8G#	.
=1014	=1014
2.E 2.G#	.
=1015	=1015
[2.E [2.A	.
=1016	=1016
2.E 2.A	.
=1017||	=1017||
*k[f#c#g#]	*
*A:	*
2E 2B	.
4E 4A	.
=1018	=1018
(4E	.
4F#	.
4G#	.
=1019	=1019
2A	.
4G#	<
=1020	=1020
2F#)	.
4F#	.
=1021	=1021
2E	.
[4E	[
=1022	=1022
(4E	.
4d	.
[4E)	.
=1023	=1023
(4E	.
4c#	.
[4E)	.
=1024	=1024
(4E	.
4c#	.
[4E)	.
=1025	=1025
(4E	.
4d	.
[4E)	.
=1026	=1026
(4E	.
4F	.
[4E)	<
=1027	=1027
(4E	.
4A	.
4G#)	.
=1028	=1028
2F#	.
(4F#	.
=1029	=1029
2E	>
4e)	]
=1030	=1030
2E	.
[4E	<
=1031	=1031
4E	>
4D	.
[4D	]
=1032	=1032
(4D	.
4C#)	.
[4D	.
=1033	=1033
(4D	.
4C#	.
4D	.
=1034	=1034
4D#	.
4E	.
4E#	.
=1035	=1035
4F#	>
4G	.
8F#L)	]
[8E	.
=1036	=1036
(4E	.
4D)	.
([4D	.
=1037	=1037
4D	.
4C#	.
4D	.
=1038	=1038
4D#	.
4E	.
4E)	.
=1039	=1039
4r	.
(8EL	pp
8A	.
8G#	.
8A	.
=1040	=1040
8BL	.
8c#	.
8d	.
8e	.
8f#	.
8e)	.
=1041	=1041
4e	.
2a	.
=1042	=1042
2.r	.
=1043	=1043
4r	.
!LO:TX:t=pizz.	!
4A 4e	.
4r	.
=1044	=1044
2.r	.
=1045	=1045
4r	.
!LO:TX:t=cresc.	!
!LO:TX:t=arco	!
(8eL	<
8f#	.
8e	.
8d)	.
=1046	=1046
!LO:TX:t=poco  a  poco	!
(8dL	.
8c#	.
8d	.
8G#	.
8A	.
8B)	.
=1047	=1047
4E	.
4A	.
4r	.
=1048	=1048
4A 4e	.
4A 4e	.
4r	.
=1049	=1049
8AL	.
8c#	.
8d	.
8c#	.
8B	.
8A	.
=1050	=1050
8G#L	.
8d#	.
8e	.
8d	.
8c#	.
8B	.
=1051	=1051
!LO:TX:t=piu cresc.	!
4E	.
4c#	.
4r	.
=1052	=1052
4c#	.
4c#	.
4r	.
=1053	=1053
!LO:TX:t=stacc.	!
4B 4f#	.
4B 4f#	.
4r	.
=1054	=1054
4B 4e	.
8BL 8e	.
8E	.
8F#	.
8G#	[
=1055	=1055
(8AL	f
8E	.
8c#)	.
(8c#L	.
8E	.
8A)	.
=1056	=1056
(8BL	sf
8G#	.
8d)	.
(8dL	.
8G#	.
8B)	.
=1057	=1057
(8c#L	sf
8A	.
8e)	.
(8eL	.
8A	.
8c#)	.
=1058	=1058
(8dL	sf
8B	.
8f)	.
(8ddL	.
8b	.
8b)	.
=1059	=1059
!LO:TX:t=dim.	!
4cc#	>
4cc#	.
4dd	.
=1060	=1060
4cc#	.
4ee	.
4ee	.
=1061	=1061
4ee	p
4cc#	.
4dd	.
=1062	=1062
!LO:TX:t=piu p	!
4cc#	.
4ee	.
4ee	.
=1063	=1063
4ee	pp
4r	.
4r	.
=1064	=1064
4cc#	.
4r	.
4r	.
=1065	=1065
[2.F#	.
=1066	=1066
4F#	.
!LO:TX:t=cresc.	!
(4A	<
4F#)	.
=1067	=1067
4D	[
2D#t	.
=1068	=1068
4E	f
4e	.
4r	.
=1069	=1069
4A	.
4a	.
4r	.
=1070	=1070
4E	.
[2e	fp
=1071	=1071
2e	.
(4e 4b	.
=1072	=1072
4e) 4cc#	.
[2e [2cc#	.
=1073	=1073
4e 4cc#	.
[2e [2cc#	.
=1074	=1074
4e 4cc#	.
[2e [2b	.
=1075	=1075
8eL 8b	.
8E	.
8F#	.
8E	.
8F#	.
8G#	.
=1076	=1076
4A	.
4a	.
4G#	.
=1077	=1077
4F#	.
4f#	.
4F# 4A	.
=1078	=1078
8F#L	.
8E	.
8E	.
8E	.
8E	.
8E	.
=1079	=1079
8EL	<
8E	.
8E	.
8DL	.
8C#	[
8C#	.
=1080	=1080
8C#L	>
8C#	.
8E	.
8E	.
8D	]
8D	.
=1081	=1081
8DL	.
8D	.
8C#	.
8C#	.
8D	<
8D	.
=1082	=1082
8DL	.
8D	.
8C#	.
8C#	.
8D	.
8D	.
=1083	=1083
8D#L	.
8D#	.
8E	.
8E	.
8E#	.
8E#	.
=1084	=1084
8E#L	>
8F#	.
8F#	.
8G	.
8F#	]
8E	.
=1085	=1085
8EL	<
8D	.
8D	.
8D	.
8D	.
8D	.
=1086	=1086
8DL	.
8C#	.
8C#	.
8C#	.
8D	[
8D	.
=1087	=1087
8D#L	>
8D#	.
8E	.
8E	.
8E	]
8E	.
=1088	=1088
4r	.
(8EL	pp
8A	.
8G#	.
8A	.
=1089	=1089
8BL	.
8c#	.
8d	.
8e	.
8f#	.
8e)	.
=1090	=1090
(4e	.
2a)	.
=1091	=1091
2.r	.
=1092	=1092
(4A	.
4c#	.
4E	.
=1093	=1093
8DL	.
8A	.
8G#	.
8G	.
8F#	.
8G#)	.
=1094	=1094
!LO:TX:t=cresc.	!
2A	<
4A	.
=1095	=1095
!LO:TX:t=poco a poco	!
(8AL	.
8e	.
8d)	.
(8d	.
8c#	.
8B)	.
=1096	=1096
8AL	.
8c#	.
8e	.
8d	.
8c#	.
8B	.
=1097	=1097
8AL	.
8G#	.
8A	.
8G	.
8F#	.
8E	.
=1098	=1098
8DL	.
8c#	.
8d	.
8c#	.
8B	.
8A	.
=1099	=1099
8G#L	.
8B	.
8e	.
8d	.
8c#	.
8B	.
=1100	=1100
!LO:TX:t=piu cresc	!
4c#	.
4c#	.
4r	.
=1101	=1101
4F# 4c#	.
4F# 4c#	.
4r	.
=1102	=1102
4F#	.
4f#	.
4r	.
=1103	=1103
4B 4e	.
4G# 4e	.
4r	.
=1104	=1104
(8eL	f
8c#	.
8e)	.
(8c#L	.
8A	.
8c#)	.
=1105	=1105
(8dL	.
8B	.
8d)	.
(8fL	.
8d	.
8f)	.
=1106	=1106
(8cc#L	.
8e	.
8cc#)	.
(8cc#L	.
8e	.
8cc#)	.
=1107	=1107
(8bL	.
8g#	.
8dd)	.
(8ddL	.
8g#	.
8b)	.
=1108	=1108
!LO:TX:t=dim.	!
8cc#L	>
(8cc#	.
8dd	.
8cc#	.
8dd	.
8cc#)	.
=1109	=1109
(8ddL	.
8cc#	.
8dd	.
8cc#	.
8dd	.
8cc#)	.
=1110	=1110
(8ddL	p
8cc#	.
8dd	.
8cc#	.
8dd	.
8cc#)	.
=1111	=1111
!LO:TX:t=piu p	!
(8ddL	.
8cc#	.
8dd	.
8cc#	.
8dd	.
8cc#)	.
=1112	=1112
4cc#	pp
4r	.
4r	.
=1113	=1113
4F#	.
4r	.
4r	.
=1114	=1114
[2.C	.
=1115	=1115
4C	.
!LO:TX:t=cresc.	!
(4C	<
4C#)	.
=1116	=1116
4D	.
2D#t	.
=1117	=1117
4E	f
4e	.
4r	.
=1118	=1118
4A	.
4a	.
4r	.
=1119	=1119
4e	.
4ee	.
4r	.
=1120	=1120
4r	.
4E	.
4B 4g#	.
=1121	=1121
4c# 4a	.
4E	p
4e	.
=1122	=1122
4c#	.
4E	ff
4e	.
=1123	=1123
4A	.
4r	.
4r	.
==	==
*-	*-
